!!!!SEGMENT: pl-wn--sd-xvi-qu-273--056_gomolka-mikolaj--smiluj-sie-nade-mna-boze-litosciwy.krn
!!!cenid: 15xx:261
!!!COM: Gomółka, Mikołaj
!!!COM-rismid: pe30013343
!!!CDT: ~1535->1591/04/30
!!!CNT: Polish
!!!GTL: Melodiae na psalterz polski
!!!OTL: LVI. Smiłuj się nade mną, Boże litościwy,
!!!ONB: PSALM LVI. Miserere mei Deus, quoiniam conculcauit me homo.
!!!PDT: 1580
!!!AGN: Sacred
!!!SMS-siglum: PL-Wn
!!!SMS-shelfmark: SD XVI.Qu.273
!!!SMS-shelfwork: 056 G
!!!NIFC-rismid:
!!!ONB-nifc: Melodiae na psalterz polski
**kern	**text	**kern	**text	**kern	**text	**kern	**text
*part4	*part4	*part3	*part3	*part2	*part2	*part1	*part1
*staff4	*staff4	*staff3	*staff3	*staff2	*staff2	*staff1	*staff1
*clefF3	*	*clefC3	*	*clefC2	*	*clefG2	*
*k[b-B-]	*	*k[b-]	*	*k[b-]	*	*k[b-]	*
*d:	*	*d:	*	*d:	*	*d:	*
*M2/1	*	*M2/1	*	*M2/1	*	*M2/1	*
*met(C|)	*	*met(C|)	*	*met(C|)	*	*met(C|)	*
*I"BASSUS.	*	*I"TENOR.	*	*I"ALTUS.	*	*I"CANTUS.	*
*>[A,A,B]	*	*>[A,A,B]	*	*>[A,A,B]	*	*>[A,A,B]	*
=1-	=1	=1-	=1	=1-	=1	=1-	=1
*>A	*	*>A	*	*>A	*	*>A	*
*	*^	*	*^	*	*^	*	*^
!LO:TX:t=P:dwa bemole przy kluczu:problem	!	!	!	!	!	!	!	!	!	!	!
0A\	SMi-	Bo	0c#X\	SMi-	Bo	0e\	SMi-	Bo	0a/	Smi-	Bo
=2-	=2	=2	=2-	=2	=2	=2-	=2	=2	=2-	=2	=2
1D/	-łuy	mię	1d\	-łuy	mię	2.f#X\	-łuy	mię	1dd\	-łuy	mię
.	.	.	.	.	.	4g\	sye	prá-	.	.	.
2AA/	sye	prá-	2e\	sye	prá-	2.a\	ná-	-wie	2cc#X\	sye	prá-
2A\	ná-	-(wie)	2e\	ná-	-wie	.	.	.	2ee\	ná-	-wie
.	.	.	.	.	.	4b-\	-de-	w źie-	.	.	.
=3-	=3	=3	=3-	=3	=3	=3-	=3	=3	=3-	=3	=3
2E/	-de-	w źie-	2g\	-de-	w zie-	2cc\	-mną,	-mię	2ee\	-de-	w źie-
2.F/	-mną,	-mię	2f\	-mną,	-mię	2a\	.	.	2ccny\	-mną,	-mię
.	.	.	2.f\	Bo-	wbił	2a\	Bo-	wbił	2cc\	Bo-	wbił
4E/	Bo-	.	.	.	.	.	.	.	.	.	.
4D/	-że	wbił	.	.	.	2a\	-że	czł(o-	2ff\	-że	czło-
4C/	li-	czło-	4e\	-że	czło-	.	.	.	.	.	.
=4-	=4	=4	=4-	=4	=4	=4-	=4	=4	=4-	=4	=4
2BB-/	-to-	-(wiek)	2d\	li-	-(wiek)	2b-\	li-	-wiek)	2.ff\	li-	-(wiek)
2F/	-śći-	zło-	2cny/	-to-	zło-	1a\	-to-	zło-	.	.	.
.	.	.	.	.	.	.	.	.	4ee\	.	.
1G\	.	-sli-	1B-/	-śći-	-(śli-	.	.	.	2dd\	-to-	zło-
.	.	.	.	.	.	2g\	-śći-	-śli-	1dd\	-śći-	-(śli-
=5-	=5	=5	=5-	=5	=5	=5-	=5	=5	=5-	=5	=5
2D/	-wy,	-wy.	1A/	-wy.	-wy.)	1a\	-wy,	-wy.	.	.	.
2AA/	.	.	.	.	.	.	.	.	2cc#X\	-wy:	-wy.)
*	*v	*v	*	*v	*v	*	*v	*v	*	*v	*v
=:|!	=	=:|!	=	=:|!	=	=:|!	=
*>B	*	*>B	*	*>B	*	*>B	*
1A\	Nié	1c#X\	Nié	1a\	Nié	1ee\	Nié
=6-	=6	=6-	=6	=6-	=6	=6-	=6
!	!	!LO:SIC:s=2c#	!	!	!	!	!
2A\	mam	2cny/	mam	2a\	m(am)	2ee\	mam
2E/	od-	2e\	od-	2g\	od-	2gg\	od-
2F/	-po-	2d\	-po-	2a\	-po-	2ff\	-po-
2D/	-czyn-	2d\	-czyn-	2a\	-czyn-	2ff\	-czyn-
=7-	=7	=7-	=7	=7-	=7	=7-	=7
!!LO:PB:g=original
2A\	-ku,	2c#X/	-ku,	2a\	-ku,	2ee\	-ku,
4r	.	4r	.	4r	.	4r	.
4A\	nié-	4c#X/	nié-	4a\	nié-	4ee\	nié-
2A\	-mam	2c#X/	-mam	2a\	-mam	2ee\	-mam
2G\	y	2d\	i	2b-\	y	2gg\	y
=8-	=8	=8-	=8	=8-	=8	=8-	=8
4D/	wyt-	1d\	wyt_chnie-	2a\	wyt-	2ff\	wyt-
4E/	-chnie-	.	.	.	.	.	.
4F\	-nia,	.	.	2a\	-chnie-	2ff\	-chnie-
4G\	.	.	.	.	.	.	.
2A\	Od	2c#X/	-n(ia,)	2a\	-(nia,)	2ee\	-(nia,)
2A\	ie-	2e\	Od	2a\	Od	2cc\	Od
=9-	=9	=9-	=9	=9-	=9	=9-	=9
2A\	-go	2cny/	ie-	4e\	ie-	2cc\	ie-
.	.	.	.	4f\	-go	.	.
2G\	po-	2d\	-go	2g\	po-	4b/	-go
.	.	.	.	.	.	4cc\	po-
2F/	-twa-	2f\	po-	2a\	-twa-	2dd\	-twa-
2D/	-rzy,	2f\	-twa-	2a\	-rzy,	2dd\	-rzy,
=10-	=10	=10-	=10	=10-	=10	=10-	=10
2A\	y	2e\	-rzy,	2a\	y	2cc#X\	.
2B-\	ie-	2d\	y	2f\	ie-	4dd\	y
.	.	.	.	.	.	4cc#\	ie-
1G\	-go	1g\	ie-	2g\	-go	1bn\	-go
.	.	.	.	2d/	.	.	.
=11-	=11	=11-	=11	=11-	=11	=11-	=11
2A\	tra-	2f\	-go	2a\	tra-	4ccny\	tra-
.	.	.	.	.	.	4a/	-pie-
2B-\	-pié	4e\	tra-	2g\	-pie-	1dd\	.
.	.	4d\	-pie-	.	.	.	.
1A\	-nia.	1e\	-nia.	2.a\	.	.	.
.	.	.	.	.	.	2cc\	-nia.
.	.	.	.	4g\	-nia.	.	.
=12-	=12	=12-	=12	=12-	=12	=12-	=12
*000/left	*	*	*	*	*	*	*
000D/	.	000d\	.	000f\	.	000dd\	.
==	==	==	==	==	==	==	==
*-	*-	*-	*-	*-	*-	*-	*-
!!!RDF**kern: l = terminal long
!!!system-decoration: s1,s2,s3,s4
!!!RDF**kern: > = above
!!!ENC: Marta Lawrence
!!!END: 2020-02-11
!!!URL-scan: https://polona.pl/item/melodiae-na-psalterz-polski,Nzk3MTM4ODQ/141 Scan on Polona
!!!IIIF: https://polona.pl/iiif/item/Nzk3MTM4ODQ/manifest.json
